X:465
T: DER HERR DER SCHICKT DEN JOCKEL AUS
N: F0879
O: Europa, Mitteleuropa, Deutschland
R: erzaehlendes Volks - Lied, Ballade, Scherz
M: 2/4
L: 1/8
K: G
D | GABc | ddd
d | ecge | edd
d | cccc | Bed
d | cAFD | AGG

@@@ Tune index: 5896
